Resources/app/storefront/src/assets/icon-pack/cinema/ic-filter.svg

<?xml version="1.0" encoding="UTF-8"?>
<svg width="16px" height="12px" viewBox="0 0 16 12" version="1.1" xmlns="http://www.w3.org/2000/svg" xmlns:xlink="http://www.w3.org/1999/xlink">
    <title>A7FA4452-0070-4221-8C00-D2932CEDEEDC@1x</title>
    <defs>
        <path d="M13,9 C13.5522847,9 14,9.44771525 14,10 L14,10 L14,11 L16,11 C16.5128358,11 16.9355072,11.3860402 16.9932723,11.8833789 L17,12 C17,12.5522847 16.5522847,13 16,13 L16,13 L14,13 L14,14 C14,14.5128358 13.6139598,14.9355072 13.1166211,14.9932723 L13,15 C12.4477153,15 12,14.5522847 12,14 L12,14 L12,10 C12,9.44771525 12.4477153,9 13,9 Z M10,11 C10.5522847,11 11,11.4477153 11,12 C11,12.5522847 10.5522847,13 10,13 L10,13 L2,13 C1.44771525,13 1,12.5522847 1,12 C1,11.4477153 1.44771525,11 2,11 L2,11 Z M6,3 C6.55228475,3 7,3.44771525 7,4 L7,4 L7,8 C7,8.55228475 6.55228475,9 6,9 C5.44771525,9 5,8.55228475 5,8 L5,8 L5,7 L5,7 L2,7 C1.44771525,7 1,6.55228475 1,6 C1,5.44771525 1.44771525,5 2,5 L5,5 L5,4 C5,3.44771525 5.44771525,3 6,3 Z M16,5 C16.5522847,5 17,5.44771525 17,6 C17,6.55228475 16.5522847,7 16,7 L9,7 C8.44771525,7 8,6.55228475 8,6 C8,5.44771525 8.44771525,5 9,5 L16,5 Z" id="path-1"></path>
    </defs>
    <g id="Lizenzen-&amp;-Assets-✅" stroke="none" stroke-width="1" fill="none" fill-rule="evenodd">
        <g id="Icons" transform="translate(-538.000000, -612.000000)">
            <g id="Group" transform="translate(537.000000, 609.000000)">
                <mask id="mask-2" fill="white">
                    <use xlink:href="#path-1"></use>
                </mask>
                <use id="Mask" fill="#071C31" xlink:href="#path-1"></use>
                <g mask="url(#mask-2)" fill="#071C31" id="Fills/Grey-900">
                    <g>
                        <rect id="Rectangle" x="0" y="0" width="18" height="18"></rect>
                    </g>
                </g>
            </g>
        </g>
    </g>
</svg>

<?xml version="1.0" encoding="UTF-8"?><svg width="16" height="12" xmlns="http://www.w3.org/2000/svg" xmlns:xlink="http://www.w3.org/1999/xlink"><defs><path d="M13 9a1 1 0 0 1 1 1v1h2a1 1 0 0 1 1 .88V12a1 1 0 0 1-1 1h-2v1a1 1 0 0 1-.88 1H13a1 1 0 0 1-1-1v-4a1 1 0 0 1 1-1Zm-3 2a1 1 0 0 1 0 2H2a1 1 0 0 1 0-2ZM6 3a1 1 0 0 1 1 1v4a1 1 0 1 1-2 0V7H2a1 1 0 1 1 0-2h3V4a1 1 0 0 1 1-1Zm10 2a1 1 0 0 1 0 2H9a1 1 0 1 1 0-2h7Z" id="a"/></defs><g transform="translate(-1 -3)" fill="none" fill-rule="evenodd"><mask id="b" fill="#fff"><use xlink:href="#a"/></mask><use fill="#071C31" xlink:href="#a"/><g mask="url(#b)" fill="#071C31"><path d="M0 0h18v18H0z"/></g></g></svg>
